X:1
T:Title
T:Warmth & Kindness
T:Composer : Tomohito Nishiura
C:Composer
%%score { ( 1 3 ) | 2 }
L:1/8
Q:1/4=104
M:4/4
K:Bb
V:1 treble nm="Piano" snm="Pno."
V:3 treble 
V:2 bass 
V:1
 df- | f6 df- | f6 db- | b6 af- | f6 cd- | d6 cd- | d6 dc- | c8- | c6 df- | f6 df- | f6 db- | %11
 b6 af- | f6 cd- | d6 cd- | d6 cB- | B8- | B4 d2 f2 | b2 fb- b2 d'c'- | c'4 a2 b2 | a2 ff- f2 dd- | %20
 d6 cd- | d6 cd- | d6 dc- | c8- | c4 d2 f2 | b2 fb- b2 d'c'- | c'4 a2 b2 | a2 ff- f2 dd- | d6 cd- | %29
 d6 cd- | d6 cB- | B8 | !arpeggio![Bdfb]8 |] %33
V:2
 z2 | B,2 D2 F4 | B,2 D2 F4 | G,2 B,2 D4 | F,2 B,2 D4 | E,2 G,2 B,4 | E,2 G,2 B,4 | F,2 A,2 C2 F2 | %8
 F,2 A,2 C2 F2 | B,2 D2 F4 | B,2 D2 F4 | G,2 B,2 D4 | F,2 B,2 D4 | E,2 G,2 C4 | F,2 A,2 C4 | %15
 B,,2 D,2 F,2 B,2 | B,,4 B,,4 | [E,G,B,E]2 E,,2 [E,G,B,]2 E,,2 | [A,CE]2 E,,2 [A,CE]2 E,,2 | %19
 [G,B,D]2 G,,2 [G,B,D]2 G,,2 | [F,A,D]2 D,,2 [F,A,D]2 D,,2 | [G,B,E]2 C,2 [G,B,E]2 C,2 | %22
 [G,CE]2 C,2 [G,CE]2 C,2 | [F,A,C]2 F,,2 [F,A,C]2 F,,2 | [F,A,C]2 F,,2 [F,A,C]2 F,,2 | %25
 [E,G,B,E]2 E,,2 [E,G,B,]2 E,,2 | [A,CE]2 E,,2 [A,CE]2 E,,2 | [G,B,D]2 G,,2 [^F,B,D]2 ^F,,2 | %28
 [F,B,D]2 F,,2 [F,B,D]2 F,,2 | [E,G,B,]2 E,,2 [E,G,B,]2 E,,2 | [F,A,C]2 F,,2 [F,A,C]2 F,,2 | %31
 B,,2 D,2 F,2 B,2 | !arpeggio![F,,F,B,D]8 |] %33
V:3
 x2 | x8 | x8 | x8 | x8 | x8 | x8 | x8 | x8 | x8 | x8 | x8 | x8 | x8 | x8 | x8 | C2 D2 F4 | x8 | %18
 x8 | x8 | x8 | x8 | x8 | x8 | x8 | x8 | x8 | x8 | x8 | x8 | x8 | x8 | x8 |] %33

